assets/images/logos/codepen.svg

<?xml version="1.0" encoding="UTF-8" standalone="no"?>
<svg width="474px" height="474px" viewBox="0 0 474 474" version="1.1" xmlns="http://www.w3.org/2000/svg" xmlns:xlink="http://www.w3.org/1999/xlink">
    <!-- Generator: Sketch 42 (36781) - http://www.bohemiancoding.com/sketch -->
    <title>Slice 1</title>
    <desc>Created with Sketch.</desc>
    <defs></defs>
    <g id="Page-1" stroke="none" stroke-width="1" fill="none" fill-rule="evenodd">
        <polygon id="Fill-1" fill="#0A0A08" points="115.9512 215.668 115.9512 257.739 147.4012 236.704"></polygon>
        <polygon id="Fill-2" fill="#0A0A08" points="224.5024 185.1304 224.5024 126.5024 126.0154 192.1554 170.0094 221.5854"></polygon>
        <polygon id="Fill-3" fill="#0A0A08" points="348.1309 192.1553 249.6429 126.5023 249.6429 185.1303 304.1399 221.5853"></polygon>
        <polygon id="Fill-4" fill="#0A0A08" points="126.0151 281.252 224.5021 346.905 224.5021 288.276 170.0101 251.83"></polygon>
        <polygon id="Fill-5" fill="#0A0A08" points="249.6426 288.2764 249.6426 346.9054 348.1306 281.2524 304.1396 251.8304"></polygon>
        <polygon id="Fill-6" fill="#0A0A08" points="237.0713 206.9663 192.6143 236.7033 237.0713 266.4413 281.5313 236.7033"></polygon>
        <g id="Group-11" fill="#0A0A08">
            <path d="M383.3311,281.2676 C383.3311,281.8216 383.2921,282.3676 383.2191,282.9136 C383.1921,283.0906 383.1491,283.2756 383.1191,283.4526 C383.0541,283.8066 382.9921,284.1606 382.8991,284.5066 C382.8461,284.7146 382.7691,284.9136 382.7031,285.1146 C382.6031,285.4216 382.5041,285.7306 382.3811,286.0386 C382.2961,286.2456 382.1911,286.4456 382.1001,286.6456 C381.9651,286.9306 381.8261,287.2066 381.6731,287.4846 C381.5601,287.6766 381.4341,287.8696 381.3141,288.0616 C381.1451,288.3236 380.9731,288.5776 380.7841,288.8236 C380.6451,289.0156 380.5031,289.1926 380.3501,289.3696 C380.1531,289.5996 379.9451,289.8306 379.7261,290.0456 C379.5601,290.2156 379.3981,290.3846 379.2261,290.5386 C378.9991,290.7466 378.7571,290.9466 378.5111,291.1386 C378.3251,291.2856 378.1411,291.4316 377.9441,291.5696 C377.8721,291.6166 377.8071,291.6776 377.7331,291.7236 L244.0461,380.8516 C241.9341,382.2596 239.5061,382.9666 237.0711,382.9666 C234.6441,382.9666 232.2121,382.2596 230.1001,380.8516 L96.4091,291.7236 C96.3391,291.6776 96.2741,291.6166 96.2051,291.5696 C96.0081,291.4316 95.8201,291.2856 95.6351,291.1386 C95.3891,290.9466 95.1501,290.7466 94.9231,290.5386 C94.7501,290.3846 94.5851,290.2156 94.4191,290.0456 C94.2001,289.8306 93.9971,289.5996 93.7921,289.3696 C93.6461,289.1926 93.5001,289.0156 93.3621,288.8236 C93.1771,288.5776 93.0001,288.3236 92.8341,288.0616 C92.7071,287.8696 92.5881,287.6766 92.4731,287.4846 C92.3191,287.2066 92.1811,286.9306 92.0461,286.6456 C91.9501,286.4456 91.8531,286.2456 91.7651,286.0386 C91.6421,285.7306 91.5381,285.4216 91.4421,285.1146 C91.3731,284.9136 91.3041,284.7146 91.2461,284.5066 C91.1531,284.1606 91.0921,283.8066 91.0261,283.4526 C90.9961,283.2756 90.9501,283.0906 90.9261,282.9136 C90.8531,282.3676 90.8111,281.8216 90.8111,281.2676 L90.8111,192.1396 C90.8111,191.5856 90.8531,191.0396 90.9261,190.5006 C90.9501,190.3166 90.9961,190.1396 91.0261,189.9546 C91.0921,189.6006 91.1531,189.2466 91.2461,188.9006 C91.3041,188.6926 91.3731,188.4926 91.4421,188.2926 C91.5381,187.9846 91.6421,187.6776 91.7651,187.3766 C91.8531,187.1696 91.9501,186.9616 92.0461,186.7616 C92.1811,186.4766 92.3191,186.1996 92.4731,185.9306 C92.5881,185.7306 92.7071,185.5386 92.8341,185.3456 C93.0001,185.0846 93.1771,184.8306 93.3621,184.5836 C93.5001,184.3996 93.6461,184.2146 93.7921,184.0386 C93.9971,183.8076 94.2001,183.5766 94.4191,183.3606 C94.5851,183.1916 94.7501,183.0226 94.9231,182.8686 C95.1501,182.6606 95.3891,182.4606 95.6351,182.2676 C95.8201,182.1216 96.0081,181.9756 96.2051,181.8376 C96.2741,181.7906 96.3391,181.7296 96.4091,181.6836 L230.1001,92.5556 C234.3241,89.7396 239.8211,89.7396 244.0461,92.5556 L377.7331,181.6836 C377.8071,181.7296 377.8721,181.7906 377.9441,181.8376 C378.1411,181.9756 378.3251,182.1216 378.5111,182.2676 C378.7571,182.4606 378.9991,182.6606 379.2261,182.8686 C379.3981,183.0226 379.5601,183.1916 379.7261,183.3606 C379.9451,183.5766 380.1531,183.8076 380.3501,184.0386 C380.5031,184.2146 380.6451,184.3996 380.7841,184.5836 C380.9731,184.8306 381.1451,185.0846 381.3141,185.3456 C381.4341,185.5386 381.5601,185.7306 381.6731,185.9306 C381.8261,186.1996 381.9651,186.4766 382.1001,186.7616 C382.1911,186.9616 382.2961,187.1696 382.3811,187.3766 C382.5041,187.6776 382.6031,187.9846 382.7031,188.2926 C382.7691,188.4926 382.8461,188.6926 382.8991,188.9006 C382.9921,189.2466 383.0541,189.6006 383.1191,189.9546 C383.1491,190.1396 383.1921,190.3166 383.2191,190.5006 C383.2921,191.0396 383.3311,191.5856 383.3311,192.1396 L383.3311,281.2676 Z M237.0711,0.1546 C106.4341,0.1546 0.5251,106.0596 0.5251,236.7036 C0.5251,367.3486 106.4341,473.2486 237.0711,473.2486 C367.7161,473.2486 473.6201,367.3486 473.6201,236.7036 C473.6201,106.0596 367.7161,0.1546 237.0711,0.1546 L237.0711,0.1546 Z" id="Fill-7"></path>
            <polygon id="Fill-9" points="358.1943 257.7393 358.1943 215.6683 326.7493 236.7033"></polygon>
        </g>
    </g>
</svg>

<svg viewBox="0 0 474 474" xmlns="http://www.w3.org/2000/svg">
  <g fill="none" fill-rule="evenodd">
    <circle fill="#FFF" cx="237" cy="237" r="160"/>
    <path fill="#0A0A08" fill-rule="nonzero" d="M115.95 215.668v42.07l31.45-21.034"/>
    <path fill="#0A0A08" fill-rule="nonzero" d="M224.502 185.13v-58.628l-98.487 65.653 43.994 29.43"/>
    <path fill="#0A0A08" fill-rule="nonzero" d="M348.13 192.155l-98.487-65.653v58.628l54.497 36.455"/>
    <path fill="#0A0A08" fill-rule="nonzero" d="M126.015 281.252l98.487 65.653v-58.63L170.01 251.83"/>
    <path fill="#0A0A08" fill-rule="nonzero" d="M249.643 288.276v58.63l98.488-65.654-43.99-29.422"/>
    <path fill="#0A0A08" fill-rule="nonzero" d="M237.07 206.966l-44.456 29.737 44.457 29.738 44.46-29.737"/>
    <g fill-rule="nonzero" fill="#0A0A08">
      <path d="M383.33 281.268c0 .554-.038 1.1-.11 1.646-.028.177-.07.362-.1.54-.066.353-.128.707-.22 1.053-.054.208-.13.407-.197.608-.1.307-.2.616-.322.924-.084.206-.19.406-.28.606-.135.285-.274.56-.427.84-.113.19-.24.384-.36.576-.168.262-.34.516-.53.762-.138.192-.28.37-.433.546-.197.23-.405.46-.624.676-.166.17-.328.34-.5.493-.227.207-.47.407-.715.6-.185.146-.37.292-.566.43-.072.047-.137.108-.21.154l-133.688 89.128c-2.112 1.408-4.54 2.115-6.975 2.115-2.426 0-4.858-.707-6.97-2.115L96.41 291.724c-.07-.046-.136-.107-.205-.154-.197-.138-.385-.284-.57-.43-.246-.193-.485-.393-.712-.6-.173-.155-.338-.324-.504-.494-.22-.215-.423-.446-.628-.676-.146-.177-.292-.354-.43-.546-.185-.246-.362-.5-.528-.762-.127-.192-.246-.385-.36-.577-.155-.278-.293-.554-.428-.84-.096-.2-.193-.4-.28-.606-.124-.31-.228-.618-.324-.925-.07-.2-.138-.4-.196-.608-.093-.346-.154-.7-.22-1.054-.03-.177-.076-.362-.1-.54-.073-.545-.115-1.09-.115-1.645V192.14c0-.554.043-1.1.116-1.64.024-.183.07-.36.1-.545.066-.354.127-.708.22-1.054.058-.207.127-.407.196-.607.096-.308.2-.615.323-.916.088-.207.185-.415.28-.615.136-.285.274-.562.428-.83.115-.2.234-.393.36-.586.167-.26.344-.515.53-.762.137-.184.283-.37.43-.545.204-.232.407-.463.626-.68.165-.168.33-.337.503-.49.227-.21.466-.41.712-.602.185-.146.373-.292.57-.43.07-.047.134-.108.204-.154L230.1 92.556c4.224-2.816 9.72-2.816 13.946 0l133.687 89.128c.074.046.14.107.21.154.198.138.382.284.568.43.247.193.49.393.716.6.172.155.334.324.5.493.22.217.427.448.624.68.153.175.295.36.434.544.19.247.36.5.53.762.12.193.246.385.36.585.152.27.29.547.426.832.09.2.196.408.28.615.124.3.223.608.323.916.066.2.143.4.196.608.092.347.154.7.22 1.055.03.185.072.362.1.546.072.54.11 1.086.11 1.64v89.128zM237.07.155C106.435.155.526 106.06.526 236.705c0 130.644 105.91 236.544 236.546 236.544 130.646 0 236.55-105.9 236.55-236.546C473.62 106.06 367.716.154 237.07.154z"/>
      <path d="M358.194 257.74v-42.072l-31.445 21.035"/>
    </g>
  </g>
</svg>
